X:170
T:Reel 170
M:4/4
K:Dmaj
L:1/8
AG|F>D (3DDD AEED|B,EED EFGA|B>E (3FEF Beef||edce dBAG||Beed e2de|fedc d2AG|FDD2 D2D2|FEEF D2B,A,|B,DEF D2AG|FABc d2dc|BdAF EDB,A,|FGEF D2DE|B,DDE D2|
